X: 43
T: 39. WHAT THE DEVIL AILS YOU
B: Sam Bayard, "Hill Country Tunes" 1944 #39
S: Played by Mrs Sarah Armstrong, (near) Derry, PA, Nov 18, 1943.
R: shottish
M: 4/4
L: 1/8
Z: 2010 John Chambers <jc:trillian.mit.edu>
K: D
.D>F[AD]>B [A2D2][f2A2] | D>FA>B [A2D2][a2A2] | ^/g2f2 e2d2 | c>dc>B A2G2 |
F>GA>B A2[f2A2] | D>FA>B A2[a2A2] | ^/g2f2 e2d2 | cABc d2z2 ||
e2e2 a2a2 | c>Ac>d e4 | B2e2 c2e2 | B2e>f e>dc>d |
e2e2 a2a2 | c>Ac>d e4 | e2^gf edcB | A4- [A2F2]"D.C."z2 |]

%%sep 2 1 500
%%sep 1 1 500

